icons/full-1-column-16.svg

<?xml version="1.0" encoding="UTF-8"?><svg id="icons" xmlns="http://www.w3.org/2000/svg" viewBox="0 0 16 16"><defs><style>.cls-1{fill:none;}.cls-1,.cls-2,.cls-3,.cls-4{stroke-width:0px;}.cls-2{opacity:.5;}.cls-3{opacity:.25;}</style></defs><path class="cls-3" d="m3,3v10h3v-1h1v1h2v-1h1v1h3V3H3Zm4,8h-1v-1h1v1Zm0-2h-1v-1h1v1Zm0-2h-1v-1h1v1Zm0-2h-1v-1h1v1Zm3,6h-1v-1h1v1Zm0-2h-1v-1h1v1Zm0-2h-1v-1h1v1Zm0-2h-1v-1h1v1Z"/><rect class="cls-1" width="16" height="16"/><path class="cls-4" d="m16,16H0V0h16v16Zm-15-1h14V1H1v14Zm13-1H2V2h12v12Zm-11-1h10V3H3v10Z"/><path class="cls-2" d="m7,5h-1v-1h1v1Zm0,1h-1v1h1v-1Zm0,2h-1v1h1v-1Zm0,2h-1v1h1v-1Zm0,3h-1v-1h1v1Zm3-8h-1v-1h1v1Zm0,1h-1v1h1v-1Zm0,2h-1v1h1v-1Zm0,2h-1v1h1v-1Zm0,3h-1v-1h1v1Z"/></svg>

<svg xmlns="http://www.w3.org/2000/svg" viewBox="0 0 16 16"><path d="M3 3v10h3v-1h1v1h2v-1h1v1h3V3H3zm4 8H6v-1h1v1zm0-2H6V8h1v1zm0-2H6V6h1v1zm0-2H6V4h1v1zm3 6H9v-1h1v1zm0-2H9V8h1v1zm0-2H9V6h1v1zm0-2H9V4h1v1z" opacity=".25" stroke-width="0"/><path stroke-width="0" fill="none" d="M0 0h16v16H0z"/><path d="M16 16H0V0h16v16zM1 15h14V1H1v14zm13-1H2V2h12v12zM3 13h10V3H3v10z" stroke-width="0"/><path d="M7 5H6V4h1v1zm0 1H6v1h1V6zm0 2H6v1h1V8zm0 2H6v1h1v-1zm0 3H6v-1h1v1zm3-8H9V4h1v1zm0 1H9v1h1V6zm0 2H9v1h1V8zm0 2H9v1h1v-1zm0 3H9v-1h1v1z" opacity=".5" stroke-width="0"/></svg>
